packages/core/src/svgs/tokens/branded/UCJL.svg

<svg width="24" height="24" viewBox="0 0 24 24" fill="none" xmlns="http://www.w3.org/2000/svg">
<path d="M11.9999 20.7499C14.3206 20.7499 16.5461 19.8281 18.1872 18.1871C19.8281 16.5461 20.7499 14.3206 20.7499 11.9999C20.7499 9.67931 19.8281 7.45374 18.1872 5.8128C16.5461 4.17186 14.3206 3.24999 11.9999 3.24999C9.67929 3.24999 7.45374 4.17186 5.8128 5.8128C4.17186 7.45374 3.24999 9.67931 3.24999 11.9999C3.24999 14.3206 4.17186 16.5461 5.8128 18.1871C7.45374 19.8281 9.67929 20.7499 11.9999 20.7499ZM11.9999 22C14.652 22 17.1957 20.9464 19.0711 19.0709C20.9463 17.1957 22 14.6521 22 11.9999C22 9.34783 20.9463 6.80427 19.0711 4.92892C17.1957 3.05355 14.652 2 11.9999 2C9.34782 2 6.80427 3.05355 4.92892 4.92892C3.05355 6.80427 2 9.34783 2 11.9999C2 14.6521 3.05355 17.1957 4.92892 19.0709C6.80427 20.9464 9.34782 22 11.9999 22Z" fill="url(#paint0_linear_364_10557)"/>
<path d="M12.0005 20.7496C16.8329 20.7496 20.7504 16.8321 20.7504 11.9997C20.7504 7.16718 16.8329 3.24969 12.0005 3.24969C7.16798 3.24969 3.25049 7.16718 3.25049 11.9997C3.25049 16.8321 7.16798 20.7496 12.0005 20.7496Z" fill="url(#paint1_linear_364_10557)"/>
<path d="M12.6255 9.18713V5.43718L8.25049 7.93718V9.49965C8.56299 9.81217 9.12547 10.1247 10.1254 10.1247C11.1254 10.1247 12.2068 9.49965 12.6255 9.18713Z" fill="#D7E6F9"/>
<path d="M15.7505 6.99968L12.6255 9.18713V16.9997L15.7505 15.1247V6.99968Z" fill="#D5DBFB"/>
<path d="M10.1254 10.1247C9.50055 10.1247 8.35674 9.70585 8.25049 9.49964V16.9997C8.35674 17.3122 8.87548 17.9371 10.1254 17.9371C11.3755 17.9371 12.3129 17.3122 12.6255 16.9997V9.18712C12.0004 9.49964 10.9192 10.1247 10.1254 10.1247Z" fill="white"/>
<defs>
<linearGradient id="paint0_linear_364_10557" x1="21.3749" y1="12" x2="2.93749" y2="12.3125" gradientUnits="userSpaceOnUse">
<stop stop-color="#17C8FA"/>
<stop offset="1" stop-color="#975DFE"/>
</linearGradient>
<linearGradient id="paint1_linear_364_10557" x1="16.3754" y1="5.12467" x2="7.31297" y2="18.8747" gradientUnits="userSpaceOnUse">
<stop stop-color="#B0AEFF"/>
<stop offset="1" stop-color="#278EDD"/>
</linearGradient>
</defs>
</svg>

<svg xmlns="http://www.w3.org/2000/svg" width="24" height="24" fill="none" viewBox="0 0 24 24">
    <path fill="url(#UCJL__a)" d="M12 20.75a8.75 8.75 0 1 0 0-17.5 8.75 8.75 0 0 0 0 17.5M12 22a10 10 0 1 0 0-20 10 10 0 0 0 0 20"/>
    <path fill="url(#UCJL__b)" d="M12 20.75a8.75 8.75 0 1 0 0-17.5 8.75 8.75 0 0 0 0 17.5"/>
    <path fill="#D7E6F9" d="M12.626 9.187v-3.75l-4.376 2.5V9.5c.313.312.875.625 1.875.625s2.082-.625 2.5-.938"/>
    <path fill="#D5DBFB" d="m15.75 7-3.124 2.187V17l3.125-1.875z"/>
    <path fill="#fff" d="M10.125 10.125c-.624 0-1.768-.42-1.875-.625V17c.107.312.625.937 1.875.937s2.188-.625 2.5-.937V9.187c-.625.313-1.706.938-2.5.938"/>
    <defs>
        <linearGradient id="UCJL__a" x1="21.375" x2="2.937" y1="12" y2="12.313" gradientUnits="userSpaceOnUse">
            <stop stop-color="#17C8FA"/>
            <stop offset="1" stop-color="#975DFE"/>
        </linearGradient>
        <linearGradient id="UCJL__b" x1="16.375" x2="7.313" y1="5.125" y2="18.875" gradientUnits="userSpaceOnUse">
            <stop stop-color="#B0AEFF"/>
            <stop offset="1" stop-color="#278EDD"/>
        </linearGradient>
    </defs>
</svg>
